X:142
T:Padraig O'Keefe's
M:12/8
L:1/8
R:Slide
K:Dmajor
"D"F2A ABA "G"G2B BAG|"D"F2A AGF "A"E2F D2E|"D"F2A ABA "G"G2B BAG|1 "A"e2d cBA d2A B2A:|2 "A"e2d cde d2Ad2e|!
"D"f2A f2A "G"g2B g2f|"A"e2d c2d e2d cBA|"D"f2A f2A "G"g2B g2f|"A"e2d cde "D"d2A d2e|!
"D"f2A f2A "G"g2B g2f|"A"e2d c2d e3- efg|"D"f2A f2A "G"g2B g2f|"A"e2d cde "D"d2A d2e||

